X: 11
T:Backstairs Jig
% Nottingham Music Database
S:EF
Y:AB
M:4/4
K:G
M:6/8
P:A
d|"G"d2b baf|"G"a2g g2g|"D7"f2f fef|"G"a2g "D7"gfe|
"G"d2b baf|"G"a2g g2g|"D7"f2f fef|"G"a2g fg:|
P:B
d|"G"gfg bge|"D7"d2d def|"G"gfg bge|"A7"e2d "D7"def|
"G"g2g "G7"gab|"C"e2e "Am"efg|"D7"ded cBF|"G"GBd g2:|


